X: 23
T:Sailor's Liberty,The. WCa.23
M:6/8
Q:120
S:Wm. Calvert MS, 1812, Leyburn, Yorks.
R:jig
O:England
A:North Yorkshire
Z:vmp.Chris Partington, May 2003
K:C
G|c2cc2f|egeg3|egf edc|Bdc BAG|!
c2cc2f|egeg3|egf edc|GcBc3::!
e2ee2g|abag3|faf edc|BdB BAG|!
e2ee2g|abag3|faf edc|GcBc3:||
